public/svgs/thin/file-lines.svg

<svg xmlns="http://www.w3.org/2000/svg" viewBox="0 0 384 512"><!-- Font Awesome Pro 6.0.0-alpha2 by @fontawesome - https://fontawesome.com License - https://fontawesome.com/license (Commercial License) --><path d="M374.629 150.627L233.371 9.373C227.371 3.371 219.23 0 210.746 0H64C28.652 0 0 28.652 0 64V448C0 483.345 28.652 512 64 512H320C355.348 512 384 483.345 384 448V173.254C384 164.767 380.629 156.629 374.629 150.627ZM224 22.629L361.375 160H248C234.781 160 224 149.234 224 136V22.629ZM368 448C368 474.467 346.469 496 320 496H64C37.531 496 16 474.467 16 448V64C16 37.533 37.531 16 64 16H208V136C208 158.062 225.938 176 248 176H368V448ZM96 264C96 268.406 99.594 272 104 272H280C284.406 272 288 268.406 288 264S284.406 256 280 256H104C99.594 256 96 259.594 96 264ZM280 320H104C99.594 320 96 323.594 96 328S99.594 336 104 336H280C284.406 336 288 332.406 288 328S284.406 320 280 320ZM280 384H104C99.594 384 96 387.594 96 392S99.594 400 104 400H280C284.406 400 288 396.406 288 392S284.406 384 280 384Z"/></svg>

<svg xmlns="http://www.w3.org/2000/svg" viewBox="0 0 384 512"><!--! Font Awesome Pro 6.5.1 by @fontawesome - https://fontawesome.com License - https://fontawesome.com/license (Commercial License) Copyright 2023 Fonticons, Inc. --><path d="M64 496c-26.5 0-48-21.5-48-48V64c0-26.5 21.5-48 48-48H204.1c1.3 0 2.6 .1 3.9 .2V136c0 22.1 17.9 40 40 40H367.8c.2 1.3 .2 2.6 .2 3.9V448c0 26.5-21.5 48-48 48H64zM358.6 157.3c.9 .9 1.7 1.8 2.4 2.7H248c-13.3 0-24-10.7-24-24V22.9c1 .8 1.9 1.6 2.7 2.4L358.6 157.3zM64 0C28.7 0 0 28.7 0 64V448c0 35.3 28.7 64 64 64H320c35.3 0 64-28.7 64-64V179.9c0-12.7-5.1-24.9-14.1-33.9L238.1 14.1c-9-9-21.2-14.1-33.9-14.1H64zm40 256c-4.4 0-8 3.6-8 8s3.6 8 8 8H280c4.4 0 8-3.6 8-8s-3.6-8-8-8H104zm0 64c-4.4 0-8 3.6-8 8s3.6 8 8 8H280c4.4 0 8-3.6 8-8s-3.6-8-8-8H104zm0 64c-4.4 0-8 3.6-8 8s3.6 8 8 8H280c4.4 0 8-3.6 8-8s-3.6-8-8-8H104z"/></svg>
